src/components/common/icons/info.svg

<svg height="44" viewBox="0 0 44 44" width="44" xmlns="http://www.w3.org/2000/svg" xmlns:xlink="http://www.w3.org/1999/xlink"><mask id="a" fill="#fff"><path d="m0 .01974487h43.980215v43.98023513h-43.980215z" fill="#fff" fill-rule="evenodd"/></mask><g fill="#231f20" fill-rule="evenodd"><path d="m21.9901376.01972483c-12.14480184 0-21.99017769 9.84527563-21.99017769 21.99017767 0 12.1448018 9.84537585 21.9900775 21.99017769 21.9900775 12.1448018 0 21.9900774-9.8452757 21.9900774-21.9900775 0-12.14490204-9.8452756-21.99017767-21.9900774-21.99017767m0 3.66502961c2.4755262 0 4.8749795.484 7.1318086 1.43856948 2.1817586.92279726 4.1418133 2.24460136 5.8259408 3.92872893 1.6841276 1.68412755 3.0059317 3.64428245 3.9287289 5.82604095.9545695 2.2568292 1.4385695 4.6562825 1.4385695 7.1318087s-.484 4.8749795-1.4385695 7.1318087c-.9227972 2.1817585-2.2446013 4.1418132-3.9287289 5.8259407-1.6841275 1.6841276-3.6441822 3.0059317-5.8259408 3.928729-2.2568291.9545694-4.6562824 1.4385694-7.1318086 1.4385694s-4.8749795-.484-7.1318087-1.4385694c-2.1817585-.9227973-4.1418132-2.2446014-5.82604097-3.928729-1.68412757-1.6841275-3.00593167-3.6441822-3.92872893-5.8259407-.95456948-2.2568292-1.43846925-4.6562825-1.43846925-7.1318087s.48389977-4.8749795 1.43846925-7.1318087c.92279726-2.1817585 2.24460136-4.1419134 3.92872893-5.82604095 1.68422777-1.68412757 3.64428247-3.00593167 5.82604097-3.92872893 2.2568292-.95456948 4.6562825-1.43856948 7.1318087-1.43856948" mask="url(#a)"/><path d="m24.7413303 10.0653759c0 1.5180501-1.230697 2.7487471-2.7487472 2.7487471-1.5181503 0-2.7488473-1.230697-2.7488473-2.7487471 0-1.51815039 1.230697-2.7487472 2.7488473-2.7487472 1.5180502 0 2.7487472 1.23059681 2.7487472 2.7487472"/><path d="m15.9362187 34.1411936v-3.6107061h4.9477449v-10.6828793h-4.9477449v-3.6107061h8.8333758v14.2935854h4.1231709v3.6107061z"/></g></svg>

<?xml version="1.0" encoding="UTF-8"?>
<svg width="44px" height="44px" viewBox="0 0 44 44" version="1.1" xmlns="http://www.w3.org/2000/svg" xmlns:xlink="http://www.w3.org/1999/xlink">
    <!-- Generator: Sketch 52.5 (67469) - http://www.bohemiancoding.com/sketch -->
    <title>Icons/.info</title>
    <desc>Created with Sketch.</desc>
    <defs>
        <polygon id="path-1" points="0 0.0197448747 43.980215 0.0197448747 43.980215 43.99998 0 43.99998"></polygon>
    </defs>
    <g id="Vapaaehtoisalusta-Layouts" stroke="none" stroke-width="1" fill="none" fill-rule="evenodd">
        <g id="HKI-Ikonit" transform="translate(-750.000000, -1020.000000)">
            <g id="Icons/.info" transform="translate(750.000000, 1020.000000)">
                <g id="Group-3" stroke-width="1">
                    <mask id="mask-2" fill="white">
                        <use xlink:href="#path-1"></use>
                    </mask>
                    <g id="Clip-2"></g>
                    <path d="M21.9901376,0.0197248292 C9.84533576,0.0197248292 -4.00911162e-05,9.86500046 -4.00911162e-05,22.0099025 C-4.00911162e-05,34.1547043 9.84533576,43.99998 21.9901376,43.99998 C34.1349394,43.99998 43.980215,34.1547043 43.980215,22.0099025 C43.980215,9.86500046 34.1349394,0.0197248292 21.9901376,0.0197248292 M21.9901376,3.68475444 C24.4656638,3.68475444 26.8651171,4.16875444 29.1219462,5.12332392 C31.3037048,6.04612118 33.2637595,7.36792528 34.947887,9.05205285 C36.6320146,10.7361804 37.9538187,12.6963353 38.8766159,14.8780938 C39.8311854,17.134923 40.3151854,19.5343763 40.3151854,22.0099025 C40.3151854,24.4854287 39.8311854,26.884882 38.8766159,29.1417112 C37.9538187,31.3234697 36.6320146,33.2835244 34.947887,34.9676519 C33.2637595,36.6517795 31.3037048,37.9735836 29.1219462,38.8963809 C26.8651171,39.8509503 24.4656638,40.3349503 21.9901376,40.3349503 C19.5146114,40.3349503 17.1151581,39.8509503 14.8583289,38.8963809 C12.6765704,37.9735836 10.7165157,36.6517795 9.03228793,34.9676519 C7.34816036,33.2835244 6.02635626,31.3234697 5.103559,29.1417112 C4.14898952,26.884882 3.66508975,24.4854287 3.66508975,22.0099025 C3.66508975,19.5343763 4.14898952,17.134923 5.103559,14.8780938 C6.02635626,12.6963353 7.34816036,10.7361804 9.03228793,9.05205285 C10.7165157,7.36792528 12.6765704,6.04612118 14.8583289,5.12332392 C17.1151581,4.16875444 19.5146114,3.68475444 21.9901376,3.68475444" id="Fill-1" fill="#231F20" mask="url(#mask-2)"></path>
                </g>
                <path d="M24.7413303,10.0653759 C24.7413303,11.583426 23.5106333,12.814123 21.9925831,12.814123 C20.4744328,12.814123 19.2437358,11.583426 19.2437358,10.0653759 C19.2437358,8.54722551 20.4744328,7.3166287 21.9925831,7.3166287 C23.5106333,7.3166287 24.7413303,8.54722551 24.7413303,10.0653759" id="Fill-4" fill="#231F20"></path>
                <polygon id="Fill-6" fill="#231F20" points="15.9362187 34.1411936 15.9362187 30.5304875 20.8839636 30.5304875 20.8839636 19.8476082 15.9362187 19.8476082 15.9362187 16.2369021 24.7695945 16.2369021 24.7695945 30.5304875 28.8927654 30.5304875 28.8927654 34.1411936"></polygon>
            </g>
        </g>
    </g>
</svg>
